X: 10
T: The Hare In The Corn
R: jig
M: 6/8
L: 1/8
K: Dmaj
|:F2A AFA|B/c/dB AFE|F2E EDE|F2D D3|
F2A AFA|B/c/dB AFA|Bcd ecA|1ded d3:|2d3 d2e||
|:f3 fed|g2e ede|f3 fed|aga bag|
f3 fed|g2e edB|ABd ecA|1ded d2e:|2d3 d3||


Tune 1736	Setting 4567

